X:25
T:Caoineadh Eoghain Ruadh
T:Lament for Owen Roe O'Neill
R:slow air
D:Dolores Keane
D:Arty McGlynn & Nollaig Casey: Lead the Knave
Z:id:hn-slowair-25
M:3/4
L:1/8
Q:1/4=80
K:Em
E3 FGA | B2 c3 A | B3 AGA | B4 G2 | E6 | E3 FGA | B2 c3 A | B4 G2 | E6 |
e4 d2 | B4 A2 | G6 | e4 d2 | B4 A2 | F6 | E4 D2 | E E3 E2 | E6 :|
|: E3F/G/ (3A/B/^c/(3d/e/f/ | g g3 f>e | f f2 f g>f | e3 d B>A | B B3 B>^c |
d3 ^cde | f2 F4 | E4 D2 | E E3 E2 | E6 :|
P:version 2
|: E3 FGA | B2 c3 A | B3 AGA | B4 G2 | E6 | E3 FGA | B2 c3 A | B4 G2 | E6 |
e4 d2 | B4 A2 | G6 | e4 d2 | B4 A2 | A4 F2 | G4 F2 | E E3 E2 | E6 :|
|: E3F/G/ (3A/B/^c/(3d/e/f/ | g g3 f>e | f f3 e>d | e3 d B>A | B B3 ^c2 |
d4 e2 | f2 F4 | G4 F2 | E E3 E2 | E6 :|

